resources/haticons/SVG/launchpad1.svg

<!-- Generated by IcoMoon.io -->
<svg version="1.1" xmlns="http://www.w3.org/2000/svg" width="24" height="24" viewBox="0 0 24 24">
<title>launchpad1</title>
<path fill="#f8c300" d="M21.999 18.676l-4.432-2.556-4.783 2.764v5.116zM11.216 24v-5.119l-4.785-2.762-4.43 2.557zM11.995 17.525l4.789-2.765v-5.524l-4.785-2.76-4.783 2.76v5.527l4.781 2.761zM1.22 6.682v10.641l4.432-2.559v-5.525l-4.433-2.559zM20.835 7.803l-2.484 1.436v5.522l4.43 2.559v-10.642zM2.001 5.324l4.435 2.559 4.781-2.762v-5.118zM17.567 7.883l4.434-2.559-9.219-5.324v5.121z"></path>
</svg>

<svg xmlns="http://www.w3.org/2000/svg" width="24" height="24"><path fill="#f8c300" d="M21.999 18.676l-4.432-2.556-4.783 2.764V24zM11.216 24v-5.119l-4.785-2.762-4.43 2.557zm.779-6.475l4.789-2.765V9.236l-4.785-2.76-4.783 2.76v5.527l4.781 2.761zM1.22 6.682v10.641l4.432-2.559V9.239L1.219 6.68zm19.615 1.121l-2.484 1.436v5.522l4.43 2.559V6.678zM2.001 5.324l4.435 2.559 4.781-2.762V.003zm15.566 2.559l4.434-2.559L12.782 0v5.121z"/></svg>
